assets/sonr-icons/passport.svg

<svg xmlns="http://www.w3.org/2000/svg" width="24" height="24" fill="none" viewBox="0 0 24 24"><path stroke="#000" stroke-linecap="round" stroke-linejoin="round" stroke-width="2" d="M9.5 16H14.5M14.5 10.5C14.5 11.8807 13.3807 13 12 13C10.6193 13 9.5 11.8807 9.5 10.5C9.5 9.11929 10.6193 8 12 8C13.3807 8 14.5 9.11929 14.5 10.5ZM6.5 20.5H17.5C18.6046 20.5 19.5 19.6046 19.5 18.5V5.5C19.5 4.39543 18.6046 3.5 17.5 3.5H6.5C5.39543 3.5 4.5 4.39543 4.5 5.5V18.5C4.5 19.6046 5.39543 20.5 6.5 20.5Z"/></svg>

<svg xmlns="http://www.w3.org/2000/svg" width="24" height="24" fill="none"><path stroke="#000" stroke-linecap="round" stroke-linejoin="round" stroke-width="2" d="M9.5 16h5m0-5.5a2.5 2.5 0 1 1-5 0 2.5 2.5 0 0 1 5 0m-8 10h11a2 2 0 0 0 2-2v-13a2 2 0 0 0-2-2h-11a2 2 0 0 0-2 2v13a2 2 0 0 0 2 2"/></svg>
